Pictures/creative-logo.svg

<svg width="50" height="50" viewBox="0 0 50 50" fill="none" xmlns="http://www.w3.org/2000/svg">
<g id="Group 3 Copy 3">
<rect id="Rectangle" width="50" height="50" rx="15" fill="#4E1853"/>
<path id="Combined Shape" fill-rule="evenodd" clip-rule="evenodd" d="M38.6069 21.8145H36.6434C36.5488 22.3303 36.3597 22.7443 36.076 23.0566C35.7923 23.3688 35.3803 23.5249 34.8399 23.5249C34.3536 23.5249 33.8267 23.3959 33.2594 23.138C32.692 22.8801 32.0773 22.5848 31.4154 22.2523C30.7535 21.9197 30.0206 21.6278 29.2168 21.3767C28.413 21.1256 27.5316 21 26.5724 21C24.8433 21 23.4823 21.733 22.4894 23.1991C21.4965 24.6652 21 26.6538 21 29.1652H25.3566C25.4512 28.6629 25.664 28.2557 25.9949 27.9434C26.3259 27.6312 26.7683 27.4751 27.3222 27.4751C27.7815 27.4751 28.2881 27.6007 28.8419 27.8518C29.3958 28.1029 30.0172 28.3982 30.7062 28.7376C31.3951 29.0769 32.155 29.3722 32.9858 29.6233C33.8166 29.8744 34.7183 30 35.691 30C36.6941 30 37.5687 29.7252 38.3148 29.1757C36.5755 34.307 31.719 38 26 38C18.8203 38 13 32.1797 13 25C13 17.8203 18.8203 12 26 12C32.0807 12 37.1863 16.1748 38.6069 21.8145Z" fill="#F94F4F"/>
</g>
</svg>

<svg xmlns="http://www.w3.org/2000/svg" width="50" height="50" fill="none"><rect width="50" height="50" fill="#4E1853" rx="15"/><path fill="#F94F4F" fill-rule="evenodd" d="M38.607 21.814h-1.964c-.094.516-.283.93-.567 1.243-.284.312-.696.468-1.236.468-.486 0-1.013-.13-1.58-.387a52.885 52.885 0 0 1-1.845-.886 14.569 14.569 0 0 0-2.198-.875c-.804-.251-1.685-.377-2.645-.377-1.729 0-3.09.733-4.083 2.2C21.497 24.664 21 26.653 21 29.164h4.357c.094-.502.307-.91.638-1.222.33-.312.773-.468 1.327-.468.46 0 .966.126 1.52.377.554.25 1.175.546 1.864.886.69.339 1.449.634 2.28.885.83.251 1.732.377 2.705.377 1.003 0 1.878-.275 2.624-.824C36.575 34.307 31.719 38 26 38c-7.18 0-13-5.82-13-13s5.82-13 13-13c6.08 0 11.186 4.175 12.607 9.814Z" clip-rule="evenodd"/></svg>
